dist/assets/images/icons/close-btn.svg

<svg width="20" height="20" viewBox="0 0 20 20" fill="none" xmlns="http://www.w3.org/2000/svg">
<g clip-path="url(#clip0_252_547)">
<path d="M13.1614 4.97998L10.1378 8.00354C10.0396 8.10176 9.88033 8.10176 9.7821 8.00354L6.75855 4.97998C6.26744 4.48888 5.47108 4.48888 4.97998 4.97998C4.48888 5.47108 4.48888 6.26744 4.97998 6.75854L8.00354 9.7821C8.10176 9.88032 8.10176 10.0396 8.00354 10.1378L4.97998 13.1614C4.48888 13.6525 4.48888 14.4488 4.97998 14.9399C5.47108 15.431 6.26744 15.431 6.75855 14.9399L9.7821 11.9164C9.88033 11.8182 10.0396 11.8182 10.1378 11.9164L13.1614 14.9399C13.6525 15.431 14.4488 15.431 14.9399 14.9399C15.431 14.4488 15.431 13.6525 14.9399 13.1614L11.9164 10.1378C11.8182 10.0396 11.8182 9.88032 11.9164 9.7821L14.9399 6.75854C15.431 6.26744 15.431 5.47108 14.9399 4.97998C14.4488 4.48888 13.6525 4.48888 13.1614 4.97998Z" fill="#E30613"/>
</g>
<defs>
<clipPath id="clip0_252_547">
<rect width="14.0855" height="14.0855" fill="white" transform="translate(0 9.95996) rotate(-45)"/>
</clipPath>
</defs>
</svg>

<svg width="20" height="20" fill="none" xmlns="http://www.w3.org/2000/svg"><g clip-path="url(#clip0_252_547)"><path d="M13.161 4.98l-3.023 3.024a.252.252 0 01-.356 0L6.76 4.98a1.258 1.258 0 00-1.78 1.779l3.024 3.023a.252.252 0 010 .356L4.98 13.16a1.258 1.258 0 001.779 1.779l3.023-3.024a.252.252 0 01.356 0l3.023 3.024a1.258 1.258 0 001.779-1.779l-3.024-3.023a.252.252 0 010-.356L14.94 6.76a1.258 1.258 0 00-1.78-1.78z" fill="#E30613"/></g><defs><clipPath id="clip0_252_547"><path fill="#fff" transform="rotate(-45 12.023 4.98)" d="M0 0h14.085v14.085H0z"/></clipPath></defs></svg>
